site/img/researchgate.svg

<?xml version="1.0" encoding="UTF-8"?>
<!DOCTYPE svg PUBLIC "-//W3C//DTD SVG 1.1//EN" "http://www.w3.org/Graphics/SVG/1.1/DTD/svg11.dtd">
<!-- Creator: CorelDRAW -->
<svg xmlns="http://www.w3.org/2000/svg" xml:space="preserve" width="32px" height="32px" version="1.1" style="shape-rendering:geometricPrecision; text-rendering:geometricPrecision; image-rendering:optimizeQuality; fill-rule:evenodd; clip-rule:evenodd"
viewBox="0 0 32 32"
 xmlns:xlink="http://www.w3.org/1999/xlink"
 xmlns:xodm="http://www.corel.com/coreldraw/odm/2003">
 <defs>
  <style type="text/css">
   <![CDATA[
    .fil0 {fill:#04D4AC;fill-rule:nonzero}
    .fil1 {fill:white;fill-rule:nonzero}
   ]]>
  </style>
 </defs>
 <g id="Capa_x0020_1">
  <metadata id="CorelCorpID_0Corel-Layer"/>
  <path class="fil0" d="M32.04 15.97c0,8.85 -7.18,16.03 -16.02,16.03 -8.85,0 -16.02,-7.18 -16.02,-16.03 0,-8.85 7.17,-16.03 16.02,-16.03 8.84,0 16.02,7.18 16.02,16.03zm-14.79 7c-1.43,-0.28 -2.28,-1.11 -4.45,-4.33 -0.72,-1.08 -0.72,-1.08 -1.42,-1.13 -1.03,-0.07 -0.95,-0.25 -0.92,2.02 0.04,2.58 0.01,2.52 1.5,2.77 0.39,0.06 0.42,0.09 0.42,0.32 0,0.26 0,0.26 -2.62,0.28 -2.46,0.02 -2.62,0.01 -2.67,-0.14 -0.1,-0.29 0.05,-0.43 0.59,-0.53 0.61,-0.11 0.93,-0.36 1.01,-0.78 0.04,-0.16 0.05,-2.32 0.03,-4.8 -0.03,-5.21 0.03,-4.9 -0.93,-5.11 -0.6,-0.13 -0.79,-0.27 -0.71,-0.51 0.06,-0.16 0.19,-0.17 2.92,-0.22 4.06,-0.08 4.82,0.05 5.9,1.01 1.13,1.01 1.29,2.55 0.39,3.84 -0.4,0.58 -1.2,1.2 -1.82,1.43 -0.29,0.11 -0.53,0.23 -0.53,0.27 0,0.12 0.92,1.43 1.49,2.13 1.52,1.85 2.34,2.57 3.19,2.79 0.53,0.14 0.68,0.29 0.53,0.55 -0.16,0.27 -0.96,0.33 -1.9,0.14zm-3.83 -6.63c2,-0.82 2.15,-3.57 0.25,-4.38 -0.49,-0.21 -0.62,-0.22 -1.85,-0.22 -1.33,0 -1.33,0 -1.35,2.31 -0.02,1.27 -0.01,2.37 0.02,2.43 0.09,0.21 2.34,0.1 2.93,-0.14zm6.97 -2.85c-1.55,-0.29 -2.06,-1.24 -1.98,-3.68 0.04,-1.35 0.15,-1.72 0.67,-2.28 0.92,-0.99 3.2,-0.9 4.04,0.16 0.36,0.45 0.33,0.59 -0.17,0.74 -0.39,0.13 -0.39,0.13 -0.75,-0.23 -0.85,-0.82 -2.32,-0.52 -2.58,0.54 -0.13,0.47 -0.12,2.46 0.01,2.91 0.35,1.27 2.46,1.27 2.82,0 0.22,-0.81 0.17,-0.87 -0.8,-0.92 -0.47,-0.02 -0.47,-0.02 -0.47,-0.41 0,-0.38 0,-0.38 1.12,-0.41 1.45,-0.03 1.43,-0.05 1.36,1.01 -0.09,1.33 -0.45,1.97 -1.32,2.35 -0.57,0.24 -1.35,0.33 -1.95,0.22z"/>
  <path class="fil1" d="M17.25 22.97c-1.43,-0.28 -2.28,-1.11 -4.45,-4.33 -0.72,-1.08 -0.72,-1.08 -1.42,-1.13 -1.03,-0.07 -0.95,-0.25 -0.92,2.02 0.04,2.58 0.01,2.52 1.5,2.77 0.39,0.06 0.42,0.09 0.42,0.32 0,0.26 0,0.26 -2.62,0.28 -2.46,0.02 -2.62,0.01 -2.67,-0.14 -0.1,-0.29 0.05,-0.43 0.59,-0.53 0.61,-0.11 0.93,-0.36 1.01,-0.78 0.04,-0.16 0.05,-2.32 0.03,-4.8 -0.03,-5.21 0.03,-4.9 -0.93,-5.11 -0.6,-0.13 -0.79,-0.27 -0.71,-0.51 0.06,-0.16 0.19,-0.17 2.92,-0.22 4.06,-0.08 4.82,0.05 5.9,1.01 1.13,1.01 1.29,2.55 0.39,3.84 -0.4,0.58 -1.2,1.2 -1.82,1.43 -0.29,0.11 -0.53,0.23 -0.53,0.27 0,0.12 0.92,1.43 1.49,2.13 1.52,1.85 2.34,2.57 3.19,2.79 0.53,0.14 0.68,0.29 0.53,0.55 -0.16,0.27 -0.96,0.33 -1.9,0.14zm-3.83 -6.63c2,-0.82 2.15,-3.57 0.25,-4.38 -0.49,-0.21 -0.62,-0.22 -1.85,-0.22 -1.33,0 -1.33,0 -1.35,2.31 -0.02,1.27 -0.01,2.37 0.02,2.43 0.09,0.21 2.34,0.1 2.93,-0.14zm6.97 -2.85c-1.55,-0.29 -2.06,-1.24 -1.98,-3.68 0.04,-1.35 0.15,-1.72 0.67,-2.28 0.92,-0.99 3.2,-0.9 4.04,0.16 0.36,0.45 0.33,0.59 -0.17,0.74 -0.39,0.13 -0.39,0.13 -0.75,-0.23 -0.85,-0.82 -2.32,-0.52 -2.58,0.54 -0.13,0.47 -0.12,2.46 0.01,2.91 0.35,1.27 2.46,1.27 2.82,0 0.22,-0.81 0.17,-0.87 -0.8,-0.92 -0.47,-0.02 -0.47,-0.02 -0.47,-0.41 0,-0.38 0,-0.38 1.12,-0.41 1.45,-0.03 1.43,-0.05 1.36,1.01 -0.09,1.33 -0.45,1.97 -1.32,2.35 -0.57,0.24 -1.35,0.33 -1.95,0.22zm0 0z"/>
 </g>
</svg>

<?xml version="1.0" encoding="UTF-8" standalone="no"?>
<!-- Creator: CorelDRAW -->

<svg
   xmlns:dc="http://purl.org/dc/elements/1.1/"
   xmlns:cc="http://creativecommons.org/ns#"
   xmlns:rdf="http://www.w3.org/1999/02/22-rdf-syntax-ns#"
   xmlns:svg="http://www.w3.org/2000/svg"
   xmlns="http://www.w3.org/2000/svg"
   xmlns:sodipodi="http://sodipodi.sourceforge.net/DTD/sodipodi-0.dtd"
   xmlns:inkscape="http://www.inkscape.org/namespaces/inkscape"
   xml:space="preserve"
   width="32"
   height="32.019974"
   version="1.1"
   style="clip-rule:evenodd;fill-rule:evenodd;image-rendering:optimizeQuality;shape-rendering:geometricPrecision;text-rendering:geometricPrecision"
   viewBox="0 0 32 32.019974"
   id="svg12"
   sodipodi:docname="researchgate.svg"
   inkscape:version="0.92.5 (2060ec1f9f, 2020-04-08)"><metadata
   id="metadata16"><rdf:RDF><cc:Work
       rdf:about=""><dc:format>image/svg+xml</dc:format><dc:type
         rdf:resource="http://purl.org/dc/dcmitype/StillImage" /><dc:title></dc:title></cc:Work></rdf:RDF></metadata><sodipodi:namedview
   pagecolor="#ffffff"
   bordercolor="#666666"
   borderopacity="1"
   objecttolerance="10"
   gridtolerance="10"
   guidetolerance="10"
   inkscape:pageopacity="0"
   inkscape:pageshadow="2"
   inkscape:window-width="1368"
   inkscape:window-height="746"
   id="namedview14"
   showgrid="false"
   fit-margin-top="0"
   fit-margin-left="0"
   fit-margin-right="0"
   fit-margin-bottom="0"
   inkscape:zoom="7.375"
   inkscape:cx="-1.559322"
   inkscape:cy="16"
   inkscape:window-x="72"
   inkscape:window-y="27"
   inkscape:window-maximized="1"
   inkscape:current-layer="svg12" />
 <defs
   id="defs4">
  <style
   type="text/css"
   id="style2">
   <![CDATA[
    .fil0 {fill:#04D4AC;fill-rule:nonzero}
    .fil1 {fill:white;fill-rule:nonzero}
   ]]>
  </style>
 </defs>
 <g
   id="Capa_x0020_1"
   transform="matrix(0.99875156,0,0,0.99875156,0,0.05992509)">
  <metadata
   id="CorelCorpID_0Corel-Layer" />
  <path
   class="fil0"
   d="M 32.04,15.97 C 32.04,24.82 24.86,32 16.02,32 7.17,32 0,24.82 0,15.97 0,7.12 7.17,-0.06 16.02,-0.06 c 8.84,0 16.02,7.18 16.02,16.03 z m -14.79,7 c -1.43,-0.28 -2.28,-1.11 -4.45,-4.33 -0.72,-1.08 -0.72,-1.08 -1.42,-1.13 -1.03,-0.07 -0.95,-0.25 -0.92,2.02 0.04,2.58 0.01,2.52 1.5,2.77 0.39,0.06 0.42,0.09 0.42,0.32 0,0.26 0,0.26 -2.62,0.28 C 7.3,22.92 7.14,22.91 7.09,22.76 6.99,22.47 7.14,22.33 7.68,22.23 8.29,22.12 8.61,21.87 8.69,21.45 8.73,21.29 8.74,19.13 8.72,16.65 8.69,11.44 8.75,11.75 7.79,11.54 7.19,11.41 7,11.27 7.08,11.03 7.14,10.87 7.27,10.86 10,10.81 c 4.06,-0.08 4.82,0.05 5.9,1.01 1.13,1.01 1.29,2.55 0.39,3.84 -0.4,0.58 -1.2,1.2 -1.82,1.43 -0.29,0.11 -0.53,0.23 -0.53,0.27 0,0.12 0.92,1.43 1.49,2.13 1.52,1.85 2.34,2.57 3.19,2.79 0.53,0.14 0.68,0.29 0.53,0.55 -0.16,0.27 -0.96,0.33 -1.9,0.14 z m -3.83,-6.63 c 2,-0.82 2.15,-3.57 0.25,-4.38 -0.49,-0.21 -0.62,-0.22 -1.85,-0.22 -1.33,0 -1.33,0 -1.35,2.31 -0.02,1.27 -0.01,2.37 0.02,2.43 0.09,0.21 2.34,0.1 2.93,-0.14 z m 6.97,-2.85 C 18.84,13.2 18.33,12.25 18.41,9.81 18.45,8.46 18.56,8.09 19.08,7.53 20,6.54 22.28,6.63 23.12,7.69 23.48,8.14 23.45,8.28 22.95,8.43 22.56,8.56 22.56,8.56 22.2,8.2 21.35,7.38 19.88,7.68 19.62,8.74 c -0.13,0.47 -0.12,2.46 0.01,2.91 0.35,1.27 2.46,1.27 2.82,0 0.22,-0.81 0.17,-0.87 -0.8,-0.92 -0.47,-0.02 -0.47,-0.02 -0.47,-0.41 0,-0.38 0,-0.38 1.12,-0.41 1.45,-0.03 1.43,-0.05 1.36,1.01 -0.09,1.33 -0.45,1.97 -1.32,2.35 -0.57,0.24 -1.35,0.33 -1.95,0.22 z"
   id="path7"
   inkscape:connector-curvature="0"
   style="fill:#04d4ac;fill-rule:nonzero" />
  <path
   class="fil1"
   d="m 17.25,22.97 c -1.43,-0.28 -2.28,-1.11 -4.45,-4.33 -0.72,-1.08 -0.72,-1.08 -1.42,-1.13 -1.03,-0.07 -0.95,-0.25 -0.92,2.02 0.04,2.58 0.01,2.52 1.5,2.77 0.39,0.06 0.42,0.09 0.42,0.32 0,0.26 0,0.26 -2.62,0.28 C 7.3,22.92 7.14,22.91 7.09,22.76 6.99,22.47 7.14,22.33 7.68,22.23 8.29,22.12 8.61,21.87 8.69,21.45 8.73,21.29 8.74,19.13 8.72,16.65 8.69,11.44 8.75,11.75 7.79,11.54 7.19,11.41 7,11.27 7.08,11.03 7.14,10.87 7.27,10.86 10,10.81 c 4.06,-0.08 4.82,0.05 5.9,1.01 1.13,1.01 1.29,2.55 0.39,3.84 -0.4,0.58 -1.2,1.2 -1.82,1.43 -0.29,0.11 -0.53,0.23 -0.53,0.27 0,0.12 0.92,1.43 1.49,2.13 1.52,1.85 2.34,2.57 3.19,2.79 0.53,0.14 0.68,0.29 0.53,0.55 -0.16,0.27 -0.96,0.33 -1.9,0.14 z m -3.83,-6.63 c 2,-0.82 2.15,-3.57 0.25,-4.38 -0.49,-0.21 -0.62,-0.22 -1.85,-0.22 -1.33,0 -1.33,0 -1.35,2.31 -0.02,1.27 -0.01,2.37 0.02,2.43 0.09,0.21 2.34,0.1 2.93,-0.14 z m 6.97,-2.85 C 18.84,13.2 18.33,12.25 18.41,9.81 18.45,8.46 18.56,8.09 19.08,7.53 20,6.54 22.28,6.63 23.12,7.69 23.48,8.14 23.45,8.28 22.95,8.43 22.56,8.56 22.56,8.56 22.2,8.2 21.35,7.38 19.88,7.68 19.62,8.74 c -0.13,0.47 -0.12,2.46 0.01,2.91 0.35,1.27 2.46,1.27 2.82,0 0.22,-0.81 0.17,-0.87 -0.8,-0.92 -0.47,-0.02 -0.47,-0.02 -0.47,-0.41 0,-0.38 0,-0.38 1.12,-0.41 1.45,-0.03 1.43,-0.05 1.36,1.01 -0.09,1.33 -0.45,1.97 -1.32,2.35 -0.57,0.24 -1.35,0.33 -1.95,0.22 z m 0,0 z"
   id="path9"
   inkscape:connector-curvature="0"
   style="fill:#ffffff;fill-rule:nonzero" />
 </g>
</svg>
